img/icons/support.svg

<svg width="24" height="24" viewBox="0 0 24 24" fill="none" xmlns="http://www.w3.org/2000/svg">
<path d="M12 20C7.58172 20 4 16.4183 4 12H2C2 17.5228 6.47715 22 12 22V20ZM4 12C4 7.58172 7.58172 4 12 4V2C6.47715 2 2 6.47715 2 12H4ZM12 4C16.4183 4 20 7.58172 20 12H22C22 6.47715 17.5228 2 12 2V4ZM20 12C20 16.4183 16.4183 20 12 20V22C17.5228 22 22 17.5228 22 12H20Z" fill="#8C8D92"/>
<path d="M11.7781 13.4497C11.2424 13.4497 10.7891 13.0119 10.8709 12.4826C10.8837 12.4 10.8984 12.3274 10.9151 12.2694C10.9863 12.0215 11.0918 11.8229 11.2315 11.6736C11.3712 11.5218 11.5425 11.3852 11.7452 11.2638C11.9205 11.1575 12.0767 11.055 12.2137 10.9564C12.3534 10.8577 12.463 10.7527 12.5425 10.6414C12.6247 10.53 12.6658 10.4035 12.6658 10.2619C12.6658 10.1354 12.6329 10.024 12.5671 9.92789C12.5014 9.83175 12.4123 9.75712 12.3 9.70399C12.1877 9.65085 12.063 9.62429 11.926 9.62429C11.7781 9.62429 11.6411 9.65591 11.5151 9.71917C11.3918 9.78242 11.2918 9.8697 11.2151 9.98102C11.0901 10.169 10.9211 10.3681 10.6954 10.3681H10.0099C9.45376 10.3681 8.96653 9.89223 9.19128 9.38353C9.25068 9.24908 9.32391 9.12566 9.41096 9.01328C9.67945 8.66414 10.0356 8.4086 10.4795 8.24668C10.9233 8.08223 11.411 8 11.9425 8C12.5288 8 13.0521 8.0797 13.5123 8.23909C13.9726 8.39595 14.3356 8.63378 14.6014 8.95256C14.8671 9.26882 15 9.66477 15 10.1404C15 10.4466 14.9425 10.716 14.8274 10.9488C14.7151 11.179 14.5575 11.3827 14.3548 11.5598C14.1548 11.7343 13.9205 11.8937 13.6521 12.038C13.4548 12.1442 13.289 12.2543 13.1548 12.3681C13.0205 12.4794 12.9192 12.6072 12.8507 12.7514C12.6801 13.1042 12.4303 13.4497 12.0384 13.4497H11.7781ZM11.811 16C11.4932 16 11.2205 15.8975 10.9932 15.6926C10.7685 15.4851 10.6575 15.2334 10.6603 14.9374C10.6575 14.649 10.7685 14.4023 10.9932 14.1973C11.2205 13.9924 11.4932 13.8899 11.811 13.8899C12.1123 13.8899 12.3781 13.9924 12.6082 14.1973C12.8411 14.4023 12.9589 14.649 12.9616 14.9374C12.9589 15.1347 12.9027 15.3144 12.7932 15.4763C12.6863 15.6357 12.5466 15.7634 12.374 15.8596C12.2014 15.9532 12.0137 16 11.811 16Z" fill="#8C8D92"/>
</svg>

<svg width="24" height="24" fill="none" xmlns="http://www.w3.org/2000/svg"><path d="M12 20a8 8 0 0 1-8-8H2c0 5.523 4.477 10 10 10v-2Zm-8-8a8 8 0 0 1 8-8V2C6.477 2 2 6.477 2 12h2Zm8-8a8 8 0 0 1 8 8h2c0-5.523-4.477-10-10-10v2Zm8 8a8 8 0 0 1-8 8v2c5.523 0 10-4.477 10-10h-2Zm-8.222 1.45c-.536 0-.989-.438-.907-.967.013-.083.027-.156.044-.214.071-.248.177-.446.317-.595.14-.152.31-.289.513-.41.176-.106.332-.209.469-.308.14-.098.249-.203.329-.315a.623.623 0 0 0 .123-.38.577.577 0 0 0-.099-.333.655.655 0 0 0-.267-.224.863.863 0 0 0-.374-.08.903.903 0 0 0-.41.095.803.803 0 0 0-.3.262c-.126.188-.295.387-.52.387h-.686c-.556 0-1.043-.476-.819-.984a1.77 1.77 0 0 1 .22-.37c.268-.35.625-.605 1.069-.767A4.181 4.181 0 0 1 11.942 8c.586 0 1.11.08 1.57.24.46.156.823.394 1.088.713.266.316.399.712.399 1.187a1.79 1.79 0 0 1-.645 1.419c-.2.175-.434.335-.703.479a2.878 2.878 0 0 0-.497.33c-.134.111-.236.24-.304.383-.17.353-.42.699-.813.699h-.26Zm.033 2.55a1.18 1.18 0 0 1-.818-.307.977.977 0 0 1-.333-.756.953.953 0 0 1 .333-.74c.227-.205.5-.307.818-.307.301 0 .567.102.797.307a.97.97 0 0 1 .354.74.966.966 0 0 1-.169.54 1.162 1.162 0 0 1-.982.524Z" fill="#8C8D92"/></svg>
